packages/core/src/svgs/tokens/branded/FARA.svg

<svg width="24" height="24" viewBox="0 0 24 24" fill="none" xmlns="http://www.w3.org/2000/svg">
<path d="M12.5273 13.8947V9.16844L13.0378 9.29475L13.7168 10.5737H17.1169L16.9274 11.7C16.5524 11.498 16.1369 11.383 15.7116 11.3632C15.2168 11.3632 14.78 11.6842 14.622 11.8474V13.3842L14.2852 13.6527L12.8852 14.1052L12.5273 13.8947Z" fill="url(#paint0_linear_364_11026)"/>
<path d="M12.9853 9.39998L12.5273 9.15788L12.701 8.98946H14.3853L14.6116 9.28946V9.93681L15.5905 8.98946H17.001L17.2642 9.39472V11.2894L16.9274 11.6947L16.7326 11.2894L16.3852 10.5526L14.459 10.2789L12.9853 9.39472V9.39998Z" fill="url(#paint1_linear_364_11026)"/>
<path d="M12.8318 13.3999V9.31045L13.2528 9.2052H14.1528L14.416 9.31045V10.0789H14.9843L15.7896 9.19993H16.737L16.9317 9.47361V11.0999L16.7317 11.3104C16.6369 11.1999 16.3054 10.9684 15.7317 10.9684C14.9054 10.9684 14.516 11.4789 14.416 11.7315V13.0684L13.2475 13.6051L12.8318 13.3947V13.3999Z" fill="#BCBBB9"/>
<path d="M6.26364 10.7053H3.52682C3.6005 11.158 3.38471 11.2738 3.38471 11.4C4.13207 12.5316 3.22682 13.5369 2.63208 14.4105C4.80575 15.9421 4.85313 18.0578 4.95838 18.3157C5.74786 17.3527 6.53731 15.0105 6.53731 13.979C6.53731 13.1527 6.35311 11.4527 6.25837 10.7053H6.26364Z" fill="#C6C6C6"/>
<path d="M5.73769 16.9472L6.06401 14.9262C5.82191 14.5262 5.21138 13.5787 4.72191 13.5787C4.23245 13.5787 3.45877 14.1788 3.13771 14.3998H2.63245L2.6272 14.4104C3.23873 14.8336 3.75665 15.3782 4.1487 16.0102C4.54076 16.6421 4.79858 17.3481 4.90612 18.084C4.91783 18.1625 4.93542 18.2398 4.95876 18.3156C5.23244 17.984 5.50086 17.4893 5.74296 16.9472H5.73769Z" fill="url(#paint2_linear_364_11026)"/>
<path d="M3.67497 10.7053C3.86444 11.0475 4.10655 11.6632 4.10655 12.3685C4.10655 13.2368 3.45392 14.0895 3.13813 14.4053H2.61182L2.80655 14.1263C3.20129 13.5737 3.56445 12.958 3.58023 12.3054C3.59077 12.0106 3.5855 11.7053 3.3855 11.4C3.3855 11.3579 3.40656 11.3211 3.43286 11.2738C3.49076 11.1684 3.58023 11.0159 3.52234 10.7053H3.68023H3.67497Z" fill="url(#paint3_linear_364_11026)"/>
<path d="M6.38434 11.8209L5.68435 13.2209C5.68435 14.3683 5.73171 17.0262 4.94751 18.2999L4.95803 18.3156C5.74749 17.3524 6.53696 15.0104 6.53696 13.9788C6.53696 13.4525 6.46328 12.5841 6.38434 11.8209Z" fill="url(#paint4_linear_364_11026)"/>
<path d="M4.91071 18.1208C4.95447 17.4024 4.81518 16.6847 4.50588 16.0349C4.19659 15.385 3.72743 14.8242 3.1423 14.4051H2.60547C3.82904 15.2832 4.65579 16.6093 4.90546 18.0946V18.1208H4.91071Z" fill="url(#paint5_linear_364_11026)"/>
<path d="M4.71708 9.17903C3.82563 9.34366 2.90871 9.3077 2.03289 9.07377C1.85394 9.91064 2.44868 10.8317 2.76973 11.1895C2.85919 11.0369 3.09604 10.7316 3.32235 10.7316C3.54341 10.7316 3.79076 11.0369 3.88551 11.1895C3.95919 11.058 4.25393 10.8001 4.85392 10.8001C5.44864 10.8001 5.77497 11.0316 5.86444 11.1474C5.99602 10.9791 6.36969 10.6369 6.78022 10.6369C7.29074 10.6369 7.61706 11.0159 7.79074 11.1895C7.67495 8.79483 6.24864 8.90535 4.71708 9.17903Z" fill="url(#paint6_linear_364_11026)"/>
<path d="M6.02207 5.68426C5.74838 5.68426 5.27471 6.07372 5.07471 6.2632L5.95365 7.16846C6.2168 7.01056 6.75364 6.64215 6.75364 6.37898C6.75364 6.05268 6.36417 5.68426 6.02207 5.68426Z" fill="#776E5F"/>
<path d="M6.21071 7.36831L5.07915 6.21042L4.30547 6.98937L4.46336 7.13673L4.30547 7.36305H4.10547V9.36829C4.41073 9.33145 5.15809 9.22093 5.70546 9.10514C5.64756 7.89462 6.02124 7.43674 6.21071 7.36305V7.36831Z" fill="#614108"/>
<path d="M5.6844 10.021L4.81072 9.36843L4.10547 10.2211L4.99493 10.9474L5.6844 10.021Z" fill="url(#paint7_linear_364_11026)"/>
<path d="M3.90643 11.158C3.91695 10.858 3.83274 10.4212 3.40116 10.4212C3.03275 10.4212 2.83274 10.8211 2.74854 11.1684L2.76433 11.1895C2.85906 11.0579 3.0959 10.8 3.32221 10.8C3.54326 10.8 3.79063 11.0632 3.88536 11.1895C3.89182 11.1803 3.89885 11.1715 3.90643 11.1631V11.158Z" fill="url(#paint8_linear_364_11026)"/>
<path d="M7.73713 11.1421C7.63186 10.858 7.3424 10.4212 6.86872 10.4212C6.48451 10.4212 6.15819 10.7632 5.97925 11.0263C6.15819 10.8684 6.45292 10.6842 6.77924 10.6842C7.24239 10.6842 7.55292 10.9685 7.73713 11.1369V11.1421Z" fill="url(#paint9_linear_364_11026)"/>
<path d="M2.66901 11.0736L3.05322 10.3683L2.00586 9.54203C2.05849 10.1473 2.40585 10.7368 2.66901 11.0683V11.0736Z" fill="url(#paint10_linear_364_11026)"/>
<path d="M7.79004 10.5263V9.30516L11.5689 9.47885L11.8742 12.0631L11.7374 13.8999C11.5795 13.842 11.0006 13.7209 9.96372 13.7209C8.93214 13.7209 8.2953 13.9788 8.10582 14.1051L7.79004 13.8052V12.0631C7.84793 11.921 8.10582 11.5998 8.69004 11.4473C9.4216 11.2578 9.75839 11.0578 9.75839 10.8157C9.75839 10.5788 9.62686 10.3525 8.99003 10.3525C8.47951 10.3525 8.14793 10.5841 8.04266 10.6999L7.79004 10.5263Z" fill="url(#paint11_linear_364_11026)"/>
<path d="M8.84266 8.84193C8.19003 8.84193 7.86898 9.14719 7.79004 9.29982L10.1742 9.98407L11.5058 13.0524L11.7427 13.8577L12.0006 13.6314V9.97879C12.0006 9.31561 11.311 8.94194 10.969 8.84193H8.84266Z" fill="#EEEAE9"/>
<path d="M8.0481 9.36841V10.2053C8.15335 10.1316 8.50072 9.98949 9.05335 9.98949C9.75332 9.98949 10.0533 10.2 10.0533 10.7526C10.0533 11.3 9.75332 11.3999 9.05335 11.5316C8.50072 11.6368 8.23757 11.9263 8.17967 12.0579V13.4105C8.20599 13.4736 8.28494 13.6 8.35862 13.6C8.89019 13.3263 10.7586 13.3578 11.627 13.4105V9.93153C11.627 9.65791 11.0428 9.03683 9.75332 9.03683C8.71652 9.03683 8.18494 9.25262 8.0481 9.36314V9.36841Z" fill="#BCBBB9"/>
<path d="M17.7896 10.5263V9.30516L21.5684 9.47885L21.8737 12.0631L21.7369 13.8999C21.579 13.842 21.0001 13.7209 19.9632 13.7209C18.9316 13.7209 18.2948 13.9788 18.1053 14.1051L17.7896 13.8052V12.0631C17.8474 11.921 18.1053 11.5998 18.6895 11.4473C19.421 11.2578 19.7579 11.0578 19.7579 10.8157C19.7579 10.5788 19.6264 10.3525 18.9895 10.3525C18.479 10.3525 18.1474 10.5841 18.0422 10.6999L17.7896 10.5263Z" fill="url(#paint12_linear_364_11026)"/>
<path d="M18.8421 8.84193C18.1895 8.84193 17.8685 9.14719 17.7896 9.29982L20.1737 9.98407L21.5053 13.0524L21.7421 13.8577L22 13.6314V9.97879C22 9.31561 21.3105 8.94194 20.9684 8.84193H18.8421Z" fill="#EEEAE9"/>
<path d="M18.0474 9.36841V10.2053C18.1526 10.1316 18.5 9.98949 19.0527 9.98949C19.7526 9.98949 20.0527 10.2 20.0527 10.7526C20.0527 11.3 19.7526 11.3999 19.0527 11.5316C18.5 11.6368 18.2369 11.9263 18.179 12.0579V13.4105C18.2053 13.4736 18.2843 13.6 18.3579 13.6C18.8894 13.3263 20.7579 13.3578 21.6263 13.4105V9.93153C21.6263 9.65791 21.0421 9.03683 19.7527 9.03683C18.7158 9.03683 18.1843 9.25262 18.0474 9.36314V9.36841Z" fill="#BCBBB9"/>
<path d="M6.73706 15.7525L7.84757 14.6314H18.258L19.3686 15.7525V16.9472L17.8791 18.3156H8.22651L6.73706 16.9472V15.7525Z" fill="url(#paint13_linear_364_11026)"/>
<path d="M6.948 16.8473V15.8473L7.93747 14.8473H18.169L19.1584 15.8473V16.8473L17.8006 18.0947H8.30589L6.948 16.8473Z" fill="#2C1F18"/>
<path d="M8.84296 15.1579H8.31665V17.7895H9.89557V17.2632H8.84296V15.1579Z" fill="url(#paint14_linear_364_11026)"/>
<path d="M11.179 15.1579L10.4211 17.7895H11.0159L11.4737 16.1895L11.9317 17.7895H12.5264L11.7684 15.1579H11.179Z" fill="url(#paint15_linear_364_11026)"/>
<path d="M13.5695 15.1579L15.159 16.6106V15.1579H15.6853V17.7895H15.2589L13.5801 16.2684V17.7895H13.0537V15.1579H13.5695Z" fill="url(#paint16_linear_364_11026)"/>
<path fill-rule="evenodd" clip-rule="evenodd" d="M17.0062 15.1579H16.2114V17.7895H17.0062C17.3551 17.7895 17.6898 17.6509 17.9366 17.4041C18.1833 17.1573 18.322 16.8227 18.322 16.4738C18.322 16.1248 18.1833 15.7901 17.9366 15.5433C17.6898 15.2965 17.3551 15.1579 17.0062 15.1579ZM17.0009 15.6842H16.7378V17.2632H17.0009C17.2103 17.2632 17.4111 17.18 17.5591 17.0319C17.7072 16.8839 17.7903 16.6831 17.7903 16.4738C17.7903 16.2644 17.7072 16.0636 17.5591 15.9155C17.4111 15.7674 17.2103 15.6842 17.0009 15.6842Z" fill="url(#paint17_linear_364_11026)"/>
<defs>
<linearGradient id="paint0_linear_364_11026" x1="16.7694" y1="11.9948" x2="12.5642" y2="11.9948" gradientUnits="userSpaceOnUse">
<stop offset="0.42" stop-color="#AF764B"/>
<stop offset="0.56" stop-color="#F7F4EF"/>
<stop offset="0.64" stop-color="#AF7239"/>
<stop offset="0.89" stop-color="#896D57"/>
<stop offset="1" stop-color="#7A7975"/>
</linearGradient>
<linearGradient id="paint1_linear_364_11026" x1="17.2642" y1="10.3526" x2="12.5273" y2="10.3526" gradientUnits="userSpaceOnUse">
<stop offset="0.27" stop-color="#F3F3F3"/>
<stop offset="0.42" stop-color="#88857C"/>
<stop offset="0.67" stop-color="#CECAC7"/>
</linearGradient>
<linearGradient id="paint2_linear_364_11026" x1="4.34824" y1="13.7419" x2="4.34824" y2="18.3156" gradientUnits="userSpaceOnUse">
<stop stop-color="#BFBFBF"/>
<stop offset="1" stop-color="#B9B1AB"/>
</linearGradient>
<linearGradient id="paint3_linear_364_11026" x1="3.35918" y1="10.7053" x2="3.35918" y2="14.4053" gradientUnits="userSpaceOnUse">
<stop stop-color="#7C8280"/>
<stop offset="1" stop-color="#A4A5A7"/>
</linearGradient>
<linearGradient id="paint4_linear_364_11026" x1="5.74749" y1="11.8209" x2="5.74749" y2="18.3156" gradientUnits="userSpaceOnUse">
<stop stop-color="#E8E8ED"/>
<stop offset="1" stop-color="#F3F5EA"/>
</linearGradient>
<linearGradient id="paint5_linear_364_11026" x1="3.77914" y1="14.4841" x2="3.77914" y2="18.1208" gradientUnits="userSpaceOnUse">
<stop stop-color="#7F7366"/>
<stop offset="1" stop-color="#C2A963"/>
</linearGradient>
<linearGradient id="paint6_linear_364_11026" x1="4.75392" y1="9.0422" x2="4.89076" y2="11.1895" gradientUnits="userSpaceOnUse">
<stop offset="0.08" stop-color="#E1C08D"/>
<stop offset="0.15" stop-color="#9D7126"/>
<stop offset="0.42" stop-color="#8C5012"/>
</linearGradient>
<linearGradient id="paint7_linear_364_11026" x1="5.32125" y1="9.65791" x2="4.43704" y2="10.4947" gradientUnits="userSpaceOnUse">
<stop stop-color="#ECA0B2"/>
<stop offset="0.32" stop-color="#CB7493"/>
<stop offset="0.53" stop-color="#73001E"/>
<stop offset="0.72" stop-color="#6C0425"/>
<stop offset="1" stop-color="#FD67B4"/>
</linearGradient>
<linearGradient id="paint8_linear_364_11026" x1="2.74327" y1="10.9632" x2="3.90643" y2="11.0316" gradientUnits="userSpaceOnUse">
<stop stop-color="#896322"/>
<stop offset="1" stop-color="#C99F4B"/>
</linearGradient>
<linearGradient id="paint9_linear_364_11026" x1="5.97925" y1="10.9317" x2="7.73186" y2="11.1" gradientUnits="userSpaceOnUse">
<stop stop-color="#896322"/>
<stop offset="1" stop-color="#C99F4B"/>
</linearGradient>
<linearGradient id="paint10_linear_364_11026" x1="2.9427" y1="9.43676" x2="2.64796" y2="11.1526" gradientUnits="userSpaceOnUse">
<stop offset="0.31" stop-color="#6B3B04"/>
<stop offset="1" stop-color="#C3942C"/>
</linearGradient>
<linearGradient id="paint11_linear_364_11026" x1="9.83207" y1="9.30516" x2="9.83207" y2="14.1051" gradientUnits="userSpaceOnUse">
<stop offset="0.09" stop-color="#7D7975"/>
<stop offset="0.26" stop-color="#BB802D"/>
<stop offset="0.43" stop-color="#CCC8C4"/>
<stop offset="0.61" stop-color="#85867B"/>
<stop offset="0.76" stop-color="#79787D"/>
<stop offset="0.93" stop-color="#A9814E"/>
</linearGradient>
<linearGradient id="paint12_linear_364_11026" x1="19.8316" y1="9.30516" x2="19.8316" y2="14.1051" gradientUnits="userSpaceOnUse">
<stop offset="0.09" stop-color="#7D7975"/>
<stop offset="0.26" stop-color="#BB802D"/>
<stop offset="0.43" stop-color="#CCC8C4"/>
<stop offset="0.61" stop-color="#85867B"/>
<stop offset="0.76" stop-color="#79787D"/>
<stop offset="0.93" stop-color="#A9814E"/>
</linearGradient>
<linearGradient id="paint13_linear_364_11026" x1="13.0528" y1="14.8525" x2="13.0528" y2="18.0946" gradientUnits="userSpaceOnUse">
<stop offset="0.54" stop-color="#281C1E"/>
<stop offset="0.66" stop-color="#70614A"/>
</linearGradient>
<linearGradient id="paint14_linear_364_11026" x1="9.10612" y1="15.1579" x2="9.10612" y2="17.7895" gradientUnits="userSpaceOnUse">
<stop stop-color="#D7922B"/>
<stop offset="0.92" stop-color="#A47316"/>
<stop offset="0.97" stop-color="#DAB15F"/>
</linearGradient>
<linearGradient id="paint15_linear_364_11026" x1="11.4737" y1="15.1579" x2="11.4737" y2="17.7895" gradientUnits="userSpaceOnUse">
<stop stop-color="#D7922B"/>
<stop offset="0.92" stop-color="#A47316"/>
<stop offset="0.97" stop-color="#DAB15F"/>
</linearGradient>
<linearGradient id="paint16_linear_364_11026" x1="14.3696" y1="15.1579" x2="14.3696" y2="17.7895" gradientUnits="userSpaceOnUse">
<stop stop-color="#D7922B"/>
<stop offset="0.92" stop-color="#A47316"/>
<stop offset="0.97" stop-color="#DAB15F"/>
</linearGradient>
<linearGradient id="paint17_linear_364_11026" x1="17.2693" y1="15.1579" x2="17.2693" y2="17.7895" gradientUnits="userSpaceOnUse">
<stop stop-color="#D7922B"/>
<stop offset="0.92" stop-color="#A47316"/>
<stop offset="0.97" stop-color="#DAB15F"/>
</linearGradient>
</defs>
</svg>

<svg xmlns="http://www.w3.org/2000/svg" width="24" height="24" fill="none" viewBox="0 0 24 24">
    <path fill="url(#FARA__a)" d="M12.527 13.895V9.168l.51.127.68 1.279h3.4l-.19 1.126a2.84 2.84 0 0 0-1.215-.337c-.495 0-.932.321-1.09.484v1.537l-.337.269-1.4.452z"/>
    <path fill="url(#FARA__b)" d="m12.985 9.4-.458-.242.174-.169h1.684l.227.3v.648l.979-.948H17l.263.406v1.894l-.337.406-.194-.406-.348-.736-1.926-.274-1.474-.884z"/>
    <path fill="#BCBBB9" d="M12.832 13.4V9.31l.42-.105h.9l.264.105v.769h.568l.806-.88h.947l.195.275V11.1l-.2.21c-.095-.11-.427-.342-1-.342-.827 0-1.216.51-1.316.764v1.336l-1.168.537-.416-.21z"/>
    <path fill="#C6C6C6" d="M6.264 10.705H3.527c.073.453-.142.569-.142.695.747 1.132-.158 2.137-.753 3.01 2.174 1.532 2.221 3.648 2.326 3.906.79-.963 1.58-3.305 1.58-4.337 0-.826-.185-2.526-.28-3.274z"/>
    <path fill="url(#FARA__c)" d="m5.738 16.947.326-2.02c-.242-.4-.853-1.348-1.342-1.348s-1.263.6-1.584.82h-.506l-.005.011a5.42 5.42 0 0 1 2.28 3.674q.015.118.052.232c.273-.332.542-.827.784-1.369z"/>
    <path fill="url(#FARA__d)" d="M3.675 10.705c.19.342.432.958.432 1.663 0 .869-.653 1.721-.969 2.037h-.526l.195-.279c.394-.552.757-1.168.773-1.82.01-.295.006-.6-.195-.906 0-.042.022-.079.048-.126.058-.106.147-.258.09-.569h.157z"/>
    <path fill="url(#FARA__e)" d="m6.384 11.82-.7 1.4c0 1.148.048 3.806-.736 5.08l.01.016c.79-.964 1.579-3.306 1.579-4.337 0-.526-.074-1.395-.153-2.158"/>
    <path fill="url(#FARA__f)" d="M4.91 18.12a4.25 4.25 0 0 0-1.768-3.715h-.537a5.7 5.7 0 0 1 2.3 3.69v.026z"/>
    <path fill="url(#FARA__g)" d="M4.717 9.179a6.1 6.1 0 0 1-2.684-.105c-.18.837.416 1.758.737 2.116.09-.153.326-.458.552-.458.221 0 .469.305.564.458.073-.132.368-.39.968-.39.595 0 .921.232 1.01.347.132-.168.506-.51.916-.51.51 0 .837.379 1.01.553-.115-2.395-1.541-2.285-3.073-2.011"/>
    <path fill="#776E5F" d="M6.022 5.684c-.274 0-.747.39-.947.58l.879.904c.263-.157.8-.526.8-.789 0-.326-.39-.695-.732-.695"/>
    <path fill="#614108" d="M6.21 7.368 5.08 6.21l-.775.78.158.147-.158.226h-.2v2.005a22 22 0 0 0 1.6-.263c-.057-1.21.316-1.668.506-1.742z"/>
    <path fill="url(#FARA__h)" d="m5.684 10.021-.873-.653-.706.853.89.726z"/>
    <path fill="url(#FARA__i)" d="M3.906 11.158c.01-.3-.073-.737-.505-.737-.368 0-.568.4-.652.747l.015.022c.095-.132.332-.39.558-.39.221 0 .469.263.563.39l.021-.027z"/>
    <path fill="url(#FARA__j)" d="M7.737 11.142c-.105-.284-.395-.72-.868-.72-.384 0-.71.341-.89.604.18-.158.474-.342.8-.342.463 0 .774.285.958.453z"/>
    <path fill="url(#FARA__k)" d="m2.669 11.074.384-.706-1.047-.826c.052.605.4 1.195.663 1.526z"/>
    <path fill="url(#FARA__l)" d="M7.79 10.526v-1.22l3.779.173.305 2.584-.137 1.837c-.158-.058-.736-.18-1.773-.18-1.032 0-1.669.259-1.858.385l-.316-.3v-1.742c.058-.142.316-.463.9-.616.732-.19 1.068-.39 1.068-.631 0-.237-.131-.464-.768-.464-.51 0-.842.232-.947.348z"/>
    <path fill="#EEEAE9" d="M8.843 8.842c-.653 0-.974.305-1.053.458l2.384.684 1.332 3.068.237.806.258-.227V9.98c0-.663-.69-1.037-1.032-1.137z"/>
    <path fill="#BCBBB9" d="M8.048 9.368v.837c.105-.073.453-.216 1.005-.216.7 0 1 .211 1 .764 0 .547-.3.647-1 .779-.552.105-.815.394-.873.526v1.353c.026.063.105.189.179.189.531-.274 2.4-.242 3.268-.19V9.933c0-.274-.584-.895-1.874-.895-1.036 0-1.568.216-1.705.326z"/>
    <path fill="url(#FARA__m)" d="M17.79 10.526v-1.22l3.778.173.306 2.584-.137 1.837c-.158-.058-.737-.18-1.774-.18-1.031 0-1.668.259-1.858.385l-.315-.3v-1.742c.057-.142.315-.463.9-.616.731-.19 1.068-.39 1.068-.631 0-.237-.132-.464-.768-.464-.511 0-.843.232-.948.348z"/>
    <path fill="#EEEAE9" d="M18.842 8.842c-.652 0-.973.305-1.052.458l2.384.684 1.331 3.068.237.806.258-.227V9.98c0-.663-.69-1.037-1.032-1.137z"/>
    <path fill="#BCBBB9" d="M18.047 9.368v.837c.106-.073.453-.216 1.006-.216.7 0 1 .211 1 .764 0 .547-.3.647-1 .779-.553.105-.816.394-.874.526v1.353c.026.063.105.189.179.189.531-.274 2.4-.242 3.268-.19V9.933c0-.274-.584-.895-1.873-.895-1.037 0-1.569.216-1.706.326z"/>
    <path fill="url(#FARA__n)" d="m6.737 15.753 1.11-1.122h10.411l1.11 1.121v1.195l-1.489 1.369H8.227l-1.49-1.369z"/>
    <path fill="#2C1F18" d="M6.948 16.847v-1l.99-1h10.231l.99 1v1L17.8 18.095H8.306z"/>
    <path fill="url(#FARA__o)" d="M8.843 15.158h-.526v2.632h1.579v-.527H8.843z"/>
    <path fill="url(#FARA__p)" d="m11.179 15.158-.758 2.632h.595l.458-1.6.458 1.6h.594l-.758-2.632z"/>
    <path fill="url(#FARA__q)" d="m13.57 15.158 1.589 1.453v-1.453h.526v2.632h-.426l-1.679-1.522v1.521h-.526v-2.631z"/>
    <path fill="url(#FARA__r)" fill-rule="evenodd" d="M17.006 15.158h-.795v2.632h.795a1.316 1.316 0 0 0 0-2.632m-.005.526h-.263v1.58H17a.79.79 0 1 0 0-1.58" clip-rule="evenodd"/>
    <defs>
        <linearGradient id="FARA__a" x1="16.769" x2="12.564" y1="11.995" y2="11.995" gradientUnits="userSpaceOnUse">
            <stop offset=".42" stop-color="#AF764B"/>
            <stop offset=".56" stop-color="#F7F4EF"/>
            <stop offset=".64" stop-color="#AF7239"/>
            <stop offset=".89" stop-color="#896D57"/>
            <stop offset="1" stop-color="#7A7975"/>
        </linearGradient>
        <linearGradient id="FARA__b" x1="17.264" x2="12.527" y1="10.353" y2="10.353" gradientUnits="userSpaceOnUse">
            <stop offset=".27" stop-color="#F3F3F3"/>
            <stop offset=".42" stop-color="#88857C"/>
            <stop offset=".67" stop-color="#CECAC7"/>
        </linearGradient>
        <linearGradient id="FARA__c" x1="4.348" x2="4.348" y1="13.742" y2="18.316" gradientUnits="userSpaceOnUse">
            <stop stop-color="#BFBFBF"/>
            <stop offset="1" stop-color="#B9B1AB"/>
        </linearGradient>
        <linearGradient id="FARA__d" x1="3.359" x2="3.359" y1="10.705" y2="14.405" gradientUnits="userSpaceOnUse">
            <stop stop-color="#7C8280"/>
            <stop offset="1" stop-color="#A4A5A7"/>
        </linearGradient>
        <linearGradient id="FARA__e" x1="5.747" x2="5.747" y1="11.821" y2="18.316" gradientUnits="userSpaceOnUse">
            <stop stop-color="#E8E8ED"/>
            <stop offset="1" stop-color="#F3F5EA"/>
        </linearGradient>
        <linearGradient id="FARA__f" x1="3.779" x2="3.779" y1="14.484" y2="18.121" gradientUnits="userSpaceOnUse">
            <stop stop-color="#7F7366"/>
            <stop offset="1" stop-color="#C2A963"/>
        </linearGradient>
        <linearGradient id="FARA__g" x1="4.754" x2="4.891" y1="9.042" y2="11.19" gradientUnits="userSpaceOnUse">
            <stop offset=".08" stop-color="#E1C08D"/>
            <stop offset=".15" stop-color="#9D7126"/>
            <stop offset=".42" stop-color="#8C5012"/>
        </linearGradient>
        <linearGradient id="FARA__h" x1="5.321" x2="4.437" y1="9.658" y2="10.495" gradientUnits="userSpaceOnUse">
            <stop stop-color="#ECA0B2"/>
            <stop offset=".32" stop-color="#CB7493"/>
            <stop offset=".53" stop-color="#73001E"/>
            <stop offset=".72" stop-color="#6C0425"/>
            <stop offset="1" stop-color="#FD67B4"/>
        </linearGradient>
        <linearGradient id="FARA__i" x1="2.743" x2="3.906" y1="10.963" y2="11.032" gradientUnits="userSpaceOnUse">
            <stop stop-color="#896322"/>
            <stop offset="1" stop-color="#C99F4B"/>
        </linearGradient>
        <linearGradient id="FARA__j" x1="5.979" x2="7.732" y1="10.932" y2="11.1" gradientUnits="userSpaceOnUse">
            <stop stop-color="#896322"/>
            <stop offset="1" stop-color="#C99F4B"/>
        </linearGradient>
        <linearGradient id="FARA__k" x1="2.943" x2="2.648" y1="9.437" y2="11.153" gradientUnits="userSpaceOnUse">
            <stop offset=".31" stop-color="#6B3B04"/>
            <stop offset="1" stop-color="#C3942C"/>
        </linearGradient>
        <linearGradient id="FARA__l" x1="9.832" x2="9.832" y1="9.305" y2="14.105" gradientUnits="userSpaceOnUse">
            <stop offset=".09" stop-color="#7D7975"/>
            <stop offset=".26" stop-color="#BB802D"/>
            <stop offset=".43" stop-color="#CCC8C4"/>
            <stop offset=".61" stop-color="#85867B"/>
            <stop offset=".76" stop-color="#79787D"/>
            <stop offset=".93" stop-color="#A9814E"/>
        </linearGradient>
        <linearGradient id="FARA__m" x1="19.832" x2="19.832" y1="9.305" y2="14.105" gradientUnits="userSpaceOnUse">
            <stop offset=".09" stop-color="#7D7975"/>
            <stop offset=".26" stop-color="#BB802D"/>
            <stop offset=".43" stop-color="#CCC8C4"/>
            <stop offset=".61" stop-color="#85867B"/>
            <stop offset=".76" stop-color="#79787D"/>
            <stop offset=".93" stop-color="#A9814E"/>
        </linearGradient>
        <linearGradient id="FARA__n" x1="13.053" x2="13.053" y1="14.852" y2="18.095" gradientUnits="userSpaceOnUse">
            <stop offset=".54" stop-color="#281C1E"/>
            <stop offset=".66" stop-color="#70614A"/>
        </linearGradient>
        <linearGradient id="FARA__o" x1="9.106" x2="9.106" y1="15.158" y2="17.79" gradientUnits="userSpaceOnUse">
            <stop stop-color="#D7922B"/>
            <stop offset=".92" stop-color="#A47316"/>
            <stop offset=".97" stop-color="#DAB15F"/>
        </linearGradient>
        <linearGradient id="FARA__p" x1="11.474" x2="11.474" y1="15.158" y2="17.79" gradientUnits="userSpaceOnUse">
            <stop stop-color="#D7922B"/>
            <stop offset=".92" stop-color="#A47316"/>
            <stop offset=".97" stop-color="#DAB15F"/>
        </linearGradient>
        <linearGradient id="FARA__q" x1="14.37" x2="14.37" y1="15.158" y2="17.79" gradientUnits="userSpaceOnUse">
            <stop stop-color="#D7922B"/>
            <stop offset=".92" stop-color="#A47316"/>
            <stop offset=".97" stop-color="#DAB15F"/>
        </linearGradient>
        <linearGradient id="FARA__r" x1="17.269" x2="17.269" y1="15.158" y2="17.79" gradientUnits="userSpaceOnUse">
            <stop stop-color="#D7922B"/>
            <stop offset=".92" stop-color="#A47316"/>
            <stop offset=".97" stop-color="#DAB15F"/>
        </linearGradient>
    </defs>
</svg>
